!!!COM: Fux, Johann Joseph
!!!OMD: Gradus ad Parnassum Exercise
!!!YEC: CC0 1.0 Universal (Public Domain). Mark Gotham and FourScoreAndMore.org waive all rights to this document.
**kern	**kern
*part2	*part1
*staff2	*staff1
*I"2	*I"1
*I'Pno	*I'Pno
!!LO:LB:g=z
*clefGv2	*clefG2
*k[]	*k[]
!!LO:TX:omd:t=
*M2/2	*M2/2
=498	=498
!	!LO:TX:a:t=Fig. 87a; Species&colon; 5; Modal final&colon; a; Cantus firmus&colon; Upper
2r	1A
[2A/	.
=499	=499
4A/]	1c
4G/	.
4E/	.
4F/	.
=500	=500
4G/	1B
4D/	.
[2G/	.
=501	=501
4G/]	1d
4A/	.
[2B\	.
=502	=502
2B\]	1c
[2A/	.
=503	=503
4A/]	1e
4B\	.
4c\	.
4B\	.
!!LO:LB:g=z
=504	=504
2A/	1f
[2d\	.
=505	=505
4d\]	1e
4c\	.
[2c\	.
=506	=506
4c\]	1d
8B/L	.
8A/J	.
[2B\	.
=507	=507
4B\]	1c
4E/	.
[2A/	.
=508	=508
2A/]	1B
2G#X/	.
=509	=509
1A	1A
==	==
*-	*-
!!!software: music21 v.9.7.1
!!!software: music21 v.9.7.1
!!!software: MuseScore 3.4.2
!!!RDF**kern: > = above
!!!RDF**kern: < = below
